**kern	**kern
*part1	*part1
*staff2	*staff1
*I"Piano	*
*clefF4	*clefG2
*k[f#]	*k[f#]
=1	=1
8.C'L 8.G	8.c'L 8.e 8.g
16C'K 16G	16c'K 16e 16g
8C' 8G	8c' 8e 8g
8C'J 8G	8c'J 8e 8g
=	=
8FFn'L 8Fn	8c'L 8g 8b
8FF' 8F	8c' 8fn 8a
8FF'J 8F	8c'J 8d 8f
8GG' 8G	8B' 8d
=	=
8.GG'L 8.G	8.B'L 8.d
16GG'K 16G	16B'K 16d
8GG' 8G	8B' 8d
8GG'J 8G	8B'J 8d
=	=
8C' 8G	8c' 8e
8r	8r
[4BB [4B	[4A [4d#X [4f#X
=	=
8BB] 8B]	8A] 8d#] 8f#]
8r	8r
!	!LO:TX:a:t=ritard.
[4E [4B	[4G [4e [4g
=	=
8E] 8B]	8G] 8e] 8g]
8r	8r
[4Dn [4dn	[4c [4f# [4a
=	=
8D] 8d]	8c] 8f#] 8a]
8r	8r
[4G [4d	[4B [4g [4b
=	=
4G] 4d]	4B] 4g] 4b]
*clefG2	*
4g; 4dd	[4b; 4gg 4bb
=||	=||
*-	*-
!!!system-decoration: {(s1,s2)}
